!!!COM:	Bach, Johann Sebastian
!!!CDT:	1685/02/21/-1750/07/28/
!!!OTL@@DE:	Es spricht der Unweisen Mund
!!!SCT:	BWV 308
!!!PC#:	27
!!!AGN:	chorale
**harm	**kern	**kern	**kern	**kern
*	*ICvox	*ICvox	*ICvox	*ICvox
*	*Ibass	*Itenor	*Ialto	*Isoprn
*	*I"Bass	*I"Tenor	*I"Alto	*I"Soprano
*>[A,A,B]	*>[A,A,B]	*>[A,A,B]	*>[A,A,B]	*>[A,A,B]
*>norep[A,B]	*>norep[A,B]	*>norep[A,B]	*>norep[A,B]	*>norep[A,B]
*>A	*>A	*>A	*>A	*>A
*	*	*oclefC4	*oclefC3	*oclefC1
*	*clefF4	*clefGv2	*clefG2	*clefG2
*k[b-e-]	*k[b-e-]	*k[b-e-]	*k[b-e-]	*k[b-e-]
*B-:	*B-:	*B-:	*B-:	*B-:
*M4/4	*M4/4	*M4/4	*M4/4	*M4/4
*met(c)	*met(c)	*met(c)	*met(c)	*met(c)
*MM100	*MM100	*MM100	*MM100	*MM100
I	4BB-	4d	4f	4b-
=1	=1	=1	=1	=1
I	4BB-	4d	4f	4b-
viio6	4C	4c	4e-	4a
I6	4D	4B-	4d	4f
vi	4G	4B-	4d	4b-
=2	=2	=2	=2	=2
V	4F	4A	4e-	4cc
I	8BB-L	8B-L	8fL	8ddL
V7/IV	8BB-J	8A-J	8fJ	8ddJ
IV;	4E-;	4G;	4e-;	4b-;
V2	4E-	4A	4c	4f
=3	=3	=3	=3	=3
I6	4D	4B-	4f	4b-
V65	4AA	4e-	4f	4cc
I	4BB-	4d	4f	4dd
IV	4E-	4B-	4g	4ee-
=4	=4	=4	=4	=4
V(64)	4F	4B-	4f	4b-
V	4F	4A	4f	4cc
I;	4BB-;	4d;	4f;	4b-;
*>B	*>B	*>B	*>B	*>B
I	4BB-	4d	4f	4b-
=5	=5	=5	=5	=5
F:V2	4BB-	4c	4e	4g
I6	4AA	4c	4f	4a
ii7	4GG	4d	4f	4b-
V	8CL	8GL	8eL	8gL
V2	8BB-J	8B-J	8dJ	8gJ
=6	=6	=6	=6	=6
I6	4AA	4c	4c	4f
V7	4C	4B-	4c	4e
I;	4FF;	4A;	4c;	4f;
I	8FL	8AL	8cL	8fL
B-:V2	8E-XJ	8AJ	8cJ	8fJ
=7	=7	=7	=7	=7
I6	8DL	8B-L	8fL	8b-L
IV	8E-J	8B-J	8gJ	8b-J
viio6	4C	4e-	4a	4cc
I	4BB-	4f	4b-	4dd
ii2	8B-L	8gL	8ccL	8ee-L
V65	8AJ	8fJ	8ccJ	8ee-J
=8	=8	=8	=8	=8
I	4B-	4f	4b-	4dd
V	4F	4f	4a	4cc
I;	4BB-;	4f;	4b-;	4dd;
V65	4A	4f	4e-	4cc
=9	=9	=9	=9	=9
I	4B-	4d	4f	4dd
IV	4G	4B-	4g	4ee-
V7	4F	4c	4a	4ee-
I	4B-	4B-	4f	4dd
=10	=10	=10	=10	=10
V(64)	4F	4B-	4f	4b-
V	4F	4A	4f	4cc
I;	4BB-;	4d;	4f;	4b-;
==	==	==	==	==
*-	*-	*-	*-	*-
!!!YOR1: 371 vierstimmige Choralges&auml;nge von Johann Sebastian Bach, 
!!!YOR2: 4th ed. by Alfred D&ouml;rffel (Leipzig: Breitkopf und H&auml;rtel, 
!!!YOR2: c.1875). 178 pp. Plate "V.A.10".  reprint: J.S. Bach, 371 Four-Part 
!!!YOR4: Chorales (New York: Associated Music Publishers, Inc., c.1940).
!!!SMS: B&H, 4th ed, Alfred D&ouml;rffel, c.1875, plate V.A.10
!!!EED:  Craig Stuart Sapp
!!!EEV:  2009/05/22
